X: 1
T: Hawick Playground
M: 4/4
L: 1/8
R: hornpipe
K: Gmaj
|:(3DEF|GB,DG BGcA|dgfa g2dg|e2ce d2bd|caBg ADFA|
GB,DG BGcA|dgfa g2dg|(3efg fg ecAF|G2GF G2:| 
|:FG|AFdA fdaf|e^deg B2ba|ge^cA Ecba|afdA F^EFG|
AFdA fdaf|e^deg B2ba|^ga=ge ^cAfe|d2d^c d2:|
